X:68
T:Donald Of Dundee. WM.068
M:2/4
L:1/8
Q:1/2=70
S:Wm.Mittell’s MS, New Romney,Kent,1799
R:.Scots Measure
O:England
A:Kent
Z:vmp.Chris Partington
K:D
(d/e/)|fddB|AFFD|(F/G/)(A/B/) Ad|e3(d/e/)|fddB|AFFD|Ade>f|d3:|!
|:d/e/|fff>g|eee>f|ddd>e|c^AFF|Bcd>e|fdBg|fBc^A|B3:|!
|:c|d>edf|gfed|dB (B/c/)(d/B/)|AFFA|d>edf|gfed|dBcA|d3:|

